X: 42084
T: Wanda's Tune
R: polka
M: 2/4
K: Dmajor
|:DF AF|dc/B/ AF|GE BA|FD FA|
DF AF|dc/B/ AF|GE BA|FD D2:|
|:d2 c2|dc/B/ AF|GE BA|FD FA|
d2 c2|dc/B/ AF|GE BA|FD D2:|

